X:1
T:The Milkmaid
R:reel
M:4/4
L:1/8
K:G
|:~G2BG cGBG|AD~D2 FGAF|~G2BG cGBG|1 Addc AGGF:|2 Addc AGGf|]
|:~g2dg Bgdg|~g2dg eaaf|~g2dg BgdB|1 cAdc BGGf:|2 cAdc BGGF|]